svg/work-doodle-gunta.svg

<svg width="303" height="400" viewBox="0 0 303 400" fill="none" xmlns="http://www.w3.org/2000/svg">
<path d="M154.994 291C155.891 296.196 156.845 301.41 156.161 306.694C155.542 311.478 153.685 316.177 151.994 320.667C149.935 326.136 147.257 332.36 141.966 335.472C139.43 336.964 136.588 338.868 133.883 340C133.548 340.14 130.099 341 131.105 341C137.985 341 145.447 340.154 151.216 336C157.096 331.767 162.465 325.503 165.216 318.75C167.447 313.275 167.494 306.938 167.494 301.111C167.494 297.676 167.996 293.004 166.744 289.75C165.796 287.284 163.748 286.5 160.883 286.5C159.523 286.5 156.601 286.58 156.494 288.5C156.446 289.368 156.222 290.614 156.994 291" stroke="#15CE79" stroke-width="3" stroke-linecap="round"/>
<path d="M178.994 286C185.832 300.434 183.842 321.93 172.272 333.5C169.182 336.59 158.341 343.731 162.411 342.139C165.751 340.832 168.962 338.262 171.939 336.278C176.484 333.247 181.069 329.869 184.939 326C189.809 321.13 193.759 312.165 193.994 305.222C194.169 300.08 194.783 293.737 193.244 288.778C192.183 285.359 190.842 281.094 186.605 281C182.434 280.907 179.874 282.101 178.994 286.5" stroke="#15CE79" stroke-width="3" stroke-linecap="round"/>
<path d="M199.994 269.5C207.258 282.746 211.719 299.873 202.772 313.472C201.877 314.832 200.287 316.742 200.077 318.417C199.859 320.166 204.055 317.26 204.272 317.111C211.259 312.292 215.361 305.661 217.383 297.5C218.956 291.151 218.994 283.814 218.994 277.278C218.994 271.73 216.669 265.732 212.522 262C209.249 259.054 205.318 259.902 202.383 263.222C200.562 265.282 197.968 268.684 200.994 270.5" stroke="#15CE79" stroke-width="3" stroke-linecap="round"/>
<path d="M222.494 248.5C224.63 254.615 230.042 258.767 231.216 265.278C232.291 271.239 232.494 277.129 232.494 283.167C232.494 288.005 235.652 282.026 236.466 280.194C239.089 274.293 239.494 266.916 239.494 260.555C239.494 253.081 236.362 243.354 228.383 241C225.854 240.254 222.997 239.864 221.466 242.389C220.393 244.16 219.606 246.196 219.494 248.278C219.427 249.535 219.692 249.7 218.494 250" stroke="#15CE79" stroke-width="3" stroke-linecap="round"/>
<path d="M139.494 284.5C138.316 293.29 137.83 301.924 137.994 310.778C138.054 314.022 139.007 317.438 140.661 320.194C141.379 321.391 138.056 319.145 136.883 318.389C133.663 316.314 130.335 311.646 129.272 307.972C128.118 303.987 127.994 299.863 127.994 295.75C127.994 292.258 129.41 290.144 131.605 287.5C132.589 286.315 135.144 282.749 137.022 283.805C138.91 284.868 140.069 285.5 137.494 285.5" stroke="#15CE79" stroke-width="3" stroke-linecap="round"/>
<path d="M120.494 276C115.865 290.231 112.634 303.511 114.883 318.444C115.652 323.551 117.837 329.695 116.966 334.917C116.851 335.61 114.74 332.365 114.494 332C112.89 329.615 111.485 327.254 110.216 324.667C106.358 316.796 104.994 307.534 104.994 298.833C104.994 293.311 105.34 286.616 107.994 281.611C109.946 277.93 111.5 273.774 114.994 271.25C117.323 269.568 120.411 267.246 122.161 271.222C123.626 274.552 121.049 275.648 118.494 276.5" stroke="#15CE79" stroke-width="3" stroke-linecap="round"/>
<path d="M98.4943 255C93.7828 261.336 89.8629 267.462 87.7165 275.111C85.7545 282.103 84.7734 289.545 84.2721 296.778C83.6622 305.578 83.2901 314.237 86.2721 322.555C87.5494 326.119 86.9943 316.165 86.9943 315.417C86.9943 305.758 88.5464 295.391 91.5221 286.167C93.445 280.206 96.9871 274.903 101.105 270.278C103.162 267.968 107.994 265.491 107.994 262C107.994 259.452 108.037 256.276 105.272 255C102.621 253.776 97.5376 254.37 96.4943 257.5" stroke="#15CE79" stroke-width="3" stroke-linecap="round"/>
<path d="M81.9941 235C76.3756 237.784 73.0539 240.438 70.3274 246.167C68.3943 250.229 67.4442 254.63 66.4941 259C64.7337 267.098 64.0296 275.872 67.2163 283.695C69.4398 289.152 68.4307 281.885 68.6052 279.5C69.223 271.057 72.0155 262.386 76.7719 255.333C79.2531 251.654 83.1432 247.898 86.7163 245.278C88.3783 244.059 90.6903 242.967 91.383 240.889C94.1046 232.724 80.9941 228.988 80.9941 236.5" stroke="#15CE79" stroke-width="3" stroke-linecap="round"/>
<path d="M226.994 225C227.309 227.147 231.599 241.698 227.994 243.5" stroke="#15CE79" stroke-width="3" stroke-linecap="round"/>
<path d="M226.494 256.5C223.895 260.584 221.419 264.575 217.994 268" stroke="#15CE79" stroke-width="3" stroke-linecap="round"/>
<path d="M206.994 278.5C203.251 281.873 199.7 284.477 195.494 287" stroke="#15CE79" stroke-width="3" stroke-linecap="round"/>
<path d="M183.494 293C179.287 293.055 175.53 293.991 171.494 295" stroke="#15CE79" stroke-width="3" stroke-linecap="round"/>
<path d="M155.494 295.5C151.289 295.002 147.294 294.291 143.605 292.111C142.405 291.402 141.305 290.437 139.994 290" stroke="#15CE79" stroke-width="3" stroke-linecap="round"/>
<path d="M124.994 286.5C123.396 284.902 121.659 283.441 120.494 281.5" stroke="#15CE79" stroke-width="3" stroke-linecap="round"/>
<path d="M108.994 271.5C108.343 269.618 107.709 267.5 105.494 267.5" stroke="#15CE79" stroke-width="3" stroke-linecap="round"/>
<path d="M92.4941 257C91.9113 255.526 91.0344 251.77 89.4941 251" stroke="#15CE79" stroke-width="3" stroke-linecap="round"/>
<path d="M78.4941 237.5C76.6131 234.34 75.5725 231.344 74.2719 228C73.6204 226.325 73.5054 224.517 72.4941 223" stroke="#15CE79" stroke-width="3" stroke-linecap="round"/>
</svg>

<svg xmlns="http://www.w3.org/2000/svg" width="303" height="400" fill="none"><path stroke="#15CE79" stroke-linecap="round" stroke-width="3" d="M154.994 291c.897 5.196 1.851 10.41 1.167 15.694-.619 4.784-2.476 9.483-4.167 13.973-2.059 5.469-4.737 11.693-10.028 14.805-2.536 1.492-5.378 3.396-8.083 4.528-.335.14-3.784 1-2.778 1 6.88 0 14.342-.846 20.111-5 5.88-4.233 11.249-10.497 14-17.25 2.231-5.475 2.278-11.812 2.278-17.639 0-3.435.502-8.107-.75-11.361-.948-2.466-2.996-3.25-5.861-3.25-1.36 0-4.282.08-4.389 2-.048.868-.272 2.114.5 2.5m22-5c6.838 14.434 4.848 35.93-6.722 47.5-3.09 3.09-13.931 10.231-9.861 8.639 3.34-1.307 6.551-3.877 9.528-5.861 4.545-3.031 9.13-6.409 13-10.278 4.87-4.87 8.82-13.835 9.055-20.778.175-5.142.789-11.485-.75-16.444-1.061-3.419-2.402-7.684-6.639-7.778-4.171-.093-6.731 1.101-7.611 5.5m21-17c7.264 13.246 11.725 30.373 2.778 43.972-.895 1.36-2.485 3.27-2.695 4.945-.218 1.749 3.978-1.157 4.195-1.306 6.987-4.819 11.089-11.45 13.111-19.611 1.573-6.349 1.611-13.686 1.611-20.222 0-5.548-2.325-11.546-6.472-15.278-3.273-2.946-7.204-2.098-10.139 1.222-1.821 2.06-4.415 5.462-1.389 7.278m21.5-22c2.136 6.115 7.548 10.267 8.722 16.778 1.075 5.961 1.278 11.851 1.278 17.889 0 4.838 3.158-1.141 3.972-2.973 2.623-5.901 3.028-13.278 3.028-19.639 0-7.474-3.132-17.201-11.111-19.555-2.529-.746-5.386-1.136-6.917 1.389-1.073 1.771-1.86 3.807-1.972 5.889-.067 1.257.198 1.422-1 1.722"/><path stroke="#15CE79" stroke-linecap="round" stroke-width="3" d="M139.494 284.5a172.141 172.141 0 0 0-1.5 26.278c.06 3.244 1.013 6.66 2.667 9.416.718 1.197-2.605-1.049-3.778-1.805-3.22-2.075-6.548-6.743-7.611-10.417-1.154-3.985-1.278-8.109-1.278-12.222 0-3.492 1.416-5.606 3.611-8.25.984-1.185 3.539-4.751 5.417-3.695 1.888 1.063 3.047 1.695.472 1.695m-17-9.5c-4.629 14.231-7.86 27.511-5.611 42.444.769 5.107 2.954 11.251 2.083 16.473-.115.693-2.226-2.552-2.472-2.917-1.604-2.385-3.009-4.746-4.278-7.333-3.858-7.871-5.222-17.133-5.222-25.834 0-5.522.346-12.217 3-17.222 1.952-3.681 3.506-7.837 7-10.361 2.329-1.682 5.417-4.004 7.167-.028 1.465 3.33-1.112 4.426-3.667 5.278m-20-21.5c-4.711 6.336-8.631 12.462-10.778 20.111-1.962 6.992-2.943 14.434-3.444 21.667-.61 8.8-.982 17.459 2 25.777 1.277 3.564.722-6.39.722-7.138 0-9.659 1.552-20.026 4.528-29.25 1.923-5.961 5.465-11.264 9.583-15.889 2.057-2.31 6.889-4.787 6.889-8.278 0-2.548.043-5.724-2.722-7-2.651-1.224-7.734-.63-8.778 2.5m-14.5-22.5c-5.618 2.784-8.94 5.438-11.667 11.167-1.933 4.062-2.883 8.463-3.833 12.833-1.76 8.098-2.464 16.872.722 24.695 2.224 5.457 1.215-1.81 1.39-4.195.617-8.443 3.41-17.114 8.166-24.167 2.481-3.679 6.371-7.435 9.944-10.055 1.662-1.219 3.974-2.311 4.667-4.389 2.722-8.165-10.389-11.901-10.389-4.389m146-11.5c.315 2.147 4.605 16.698 1 18.5m-1.5 13c-2.599 4.084-5.075 8.075-8.5 11.5m-11 10.5c-3.743 3.373-7.294 5.977-11.5 8.5m-12 6c-4.207.055-7.964.991-12 2m-16 .5c-4.205-.498-8.2-1.209-11.889-3.389-1.2-.709-2.3-1.674-3.611-2.111"/><path stroke="#15CE79" stroke-linecap="round" stroke-width="3" d="M124.994 286.5c-1.598-1.598-3.335-3.059-4.5-5m-11.5-10c-.651-1.882-1.285-4-3.5-4m-13-10.5c-.583-1.474-1.46-5.23-3-6m-11-13.5c-1.88-3.16-2.921-6.156-4.222-9.5-.652-1.675-.767-3.483-1.778-5"/></svg>
